flaticon/business/graph-4.svg

<svg xmlns="http://www.w3.org/2000/svg" width="32" height="32" viewBox="0 0 24 24">
    <path d="M23.601562 21.953125L23.199219 21.953125 23.199219 16.351562 18.398438 16.351562 18.398438 21.953125 17.199219 21.953125 17.199219 12.75 12.398438 12.75 12.398438 21.953125 11.199219 21.953125 11.199219 9.550781 6.398438 9.550781 6.398438 21.953125 5.199219 21.953125 5.199219 6.351562.398438 6.351562.398438 21.953125C.179688 21.953125 0 22.128906 0 22.351562 0 22.574219.179688 22.75.398438 22.75L23.601562 22.75C23.820312 22.75 24 22.574219 24 22.351562 24 22.128906 23.820312 21.953125 23.601562 21.953125zM1.199219 21.953125L1.199219 7.152344 4.398438 7.152344 4.398438 21.953125zM7.199219 21.953125L7.199219 10.351562 10.398438 10.351562 10.398438 21.953125zM13.199219 21.953125L13.199219 13.550781 16.398438 13.550781 16.398438 21.953125zM19.199219 21.953125L19.199219 17.152344 22.398438 17.152344 22.398438 21.953125zM4.710938 1.996094L19.21875 10.371094 17.039062 10.582031C16.816406 10.605469 16.65625 10.800781 16.679688 11.019531 16.699219 11.226562 16.871094 11.382812 17.074219 11.382812 17.089844 11.382812 17.101562 11.378906 17.113281 11.378906L20.539062 11.046875C20.546875 11.046875 20.550781 11.042969 20.558594 11.042969 20.589844 11.039062 20.621094 11.027344 20.648438 11.015625 20.65625 11.015625 20.660156 11.015625 20.667969 11.011719 20.671875 11.011719 20.671875 11.007812 20.675781 11.003906 20.679688 11.003906 20.679688 11.003906 20.679688 11.003906 20.683594 11 20.691406 11 20.695312 11 20.730469 10.980469 20.761719 10.953125 20.789062 10.925781 20.792969 10.917969 20.796875 10.914062 20.800781 10.910156 20.808594 10.902344 20.8125 10.894531 20.820312 10.882812 20.828125 10.871094 20.839844 10.863281 20.847656 10.847656 20.855469 10.839844 20.855469 10.828125 20.859375 10.816406 20.863281 10.804688 20.875 10.792969 20.878906 10.777344 20.882812 10.761719 20.882812 10.746094 20.886719 10.730469 20.890625 10.710938 20.894531 10.6875 20.898438 10.667969 20.898438 10.652344 20.898438 10.636719 20.898438 10.621094 20.898438 10.617188 20.902344 10.613281 20.898438 10.609375 20.898438 10.597656 20.890625 10.589844 20.890625 10.578125 20.886719 10.554688 20.878906 10.535156 20.871094 10.511719 20.871094 10.503906 20.871094 10.492188 20.867188 10.480469L19.441406 7.351562C19.347656 7.148438 19.113281 7.058594 18.910156 7.152344 18.710938 7.242188 18.621094 7.480469 18.710938 7.679688L19.621094 9.675781 5.113281 1.300781C4.921875 1.191406 4.675781 1.257812 4.566406 1.449219 4.457031 1.640625 4.519531 1.886719 4.710938 1.996094zM4.710938 1.996094"/>
</svg>

<svg xmlns="http://www.w3.org/2000/svg" width="32" height="32" viewBox="0 0 24 24">
    <path d="M23.602 21.953h-.403v-5.601h-4.8v5.601h-1.2V12.75h-4.8v9.203h-1.2V9.551H6.4v12.402h-1.2V6.352H.4v15.601a.398.398 0 1 0 0 .797h23.203a.398.398 0 1 0 0-.797zm-22.403 0v-14.8h3.2v14.8zm6 0V10.352h3.2v11.601zm6 0v-8.402h3.2v8.402zm6 0v-4.8h3.2v4.8zm0 0M4.71 1.996l14.509 8.375-2.18.211a.399.399 0 0 0-.36.438c.02.207.192.363.395.363.016 0 .028-.004.04-.004l3.425-.332c.008 0 .012-.004.02-.004a.343.343 0 0 0 .09-.027c.007 0 .011 0 .019-.004.004 0 .004-.004.008-.008h.004c.004-.004.011-.004.015-.004a.436.436 0 0 0 .106-.09c.008-.008.012-.015.02-.027.007-.012.019-.02.027-.035.007-.008.007-.02.011-.032.004-.011.016-.023.02-.039.004-.015.004-.03.008-.047l.011-.062v-.047c0-.004.004-.008 0-.012 0-.011-.007-.02-.007-.03-.004-.024-.012-.044-.02-.067 0-.008 0-.02-.004-.032l-1.426-3.128a.4.4 0 0 0-.73.328l.91 1.996L5.113 1.3a.402.402 0 0 0-.402.695zm0 0"/>
</svg>
